X:89
T:89 The Bath Waltz
C:Welch MS
I:abc2nwc
M:3/4
L:1/8
K:G
(3DEF|G2G2G2|G4DG|B2B2B2|B4GB|d4BE|e4cA|F2F2F2|G4:|
Bd|dc c2AF|AG G2Bd|dc c2AF|G4Bd|dc c2AF|AG G2Bd|ed fc AF|G4:|
D2|G2F2G2|A4B2|c2E2A2|G2F2D2|G2F2G2|e2f2gf|de dc BA|G4:|


